X: 28418
T: Mull Of Kintyre
R: waltz
M: 3/4
K: Dmajor
e/|:A>Bd f3|fed e<dB|A>Bd f3|fed e<dB|A>Be d3|
Ad>B A<FA|dfe d3|Bd>c BAF|AdB A3|Ad>B AFA|
dfe d2e/f/|g2f/e/ d<BB|A>Be d3:|A>Bd f3|fed e<dB|
A>Bd f3|fed e<dB|A>Be d3|:A>Bd f3|e>fa c2B|
A>Bd f3|e>fa c2B|1 A>Be (d3|d3 d3):|2 A>Be (d3|d3 d2d>d)||

